src/bundle/Resources/public/img/icons/catalog.svg

<svg width="32" height="32" viewBox="0 0 32 32" fill="none" xmlns="http://www.w3.org/2000/svg">
<path fill-rule="evenodd" clip-rule="evenodd" d="M28.6675 -0.000126953H6.0005C4.8955 -0.000126953 4.0005 0.894873 4.0005 1.99987V3.77987C3.2485 3.92087 2.5775 4.17287 1.9685 4.51987L2.0005 4.50287C1.5895 4.73587 1.3165 5.17087 1.3165 5.66987C1.3165 6.40887 1.9155 7.00687 2.6535 7.00687C2.8935 7.00687 3.1185 6.94387 3.3135 6.83287L3.3065 6.83587C3.4965 6.72287 3.7175 6.62187 3.9485 6.54287L3.9735 6.53587V9.11887C3.2215 9.25987 2.5505 9.51187 1.9415 9.85887L1.9735 9.84187C1.5625 10.0749 1.2895 10.5099 1.2895 11.0089C1.2895 11.7479 1.8885 12.3459 2.6265 12.3459C2.8665 12.3459 3.0915 12.2829 3.2865 12.1719L3.2795 12.1749C3.4695 12.0619 3.6905 11.9609 3.9215 11.8819L3.9465 11.8749V14.4579C3.1945 14.5989 2.5235 14.8509 1.9145 15.1979L1.9465 15.1809C1.5355 15.4139 1.2625 15.8489 1.2625 16.3479C1.2625 17.0859 1.8615 17.6849 2.5995 17.6849C2.8395 17.6849 3.0645 17.6219 3.2595 17.5109L3.2525 17.5139C3.4425 17.4009 3.6635 17.2999 3.8945 17.2209L3.9195 17.2139V19.7969C3.1675 19.9379 2.4965 20.1899 1.8875 20.5369L1.9195 20.5199C1.5085 20.7529 1.2355 21.1879 1.2355 21.6869C1.2355 22.4249 1.8345 23.0239 2.5725 23.0239C2.8125 23.0239 3.0375 22.9609 3.2325 22.8499L3.2255 22.8529C3.4155 22.7399 3.6365 22.6389 3.8675 22.5599L3.8925 22.5529V25.1359C3.1405 25.2769 2.4695 25.5289 1.8605 25.8759L1.8925 25.8589C1.4815 26.0919 1.2085 26.5269 1.2085 27.0259C1.2085 27.7639 1.8075 28.3629 2.5455 28.3629C2.7855 28.3629 3.0105 28.2999 3.2055 28.1889L3.1985 28.1919C3.3885 28.0789 3.6095 27.9779 3.8405 27.8989L3.8655 27.8919V29.9949C3.8655 31.0999 4.7605 31.9949 5.8655 31.9949H28.6655C29.7705 31.9949 30.6655 31.0999 30.6655 29.9949V1.99487C30.6655 0.889873 29.7705 -0.00512695 28.6655 -0.00512695L28.6675 -0.000126953ZM27.9999 29.3333H6.66693V27.8904C6.93193 27.9694 7.15893 28.0634 7.37493 28.1774L7.35393 28.1674C7.54093 28.2734 7.76493 28.3363 8.00393 28.3363C8.74193 28.3363 9.33993 27.7384 9.33993 27.0004C9.33993 26.5014 9.06593 26.0663 8.66093 25.8374L8.65393 25.8344C8.07593 25.5274 7.40593 25.2884 6.69993 25.1514L6.65493 25.1444V22.5574C6.91993 22.6364 7.14693 22.7304 7.36293 22.8444L7.34193 22.8344C7.52893 22.9403 7.75293 23.0034 7.99193 23.0034C8.72993 23.0034 9.32793 22.4054 9.32793 21.6674C9.32793 21.1684 9.05393 20.7334 8.64893 20.5044L8.64193 20.5014C8.06393 20.1944 7.39393 19.9554 6.68793 19.8183L6.64293 19.8113V17.2244C6.90793 17.3034 7.13493 17.3974 7.35093 17.5114L7.32993 17.5014C7.51693 17.6074 7.74093 17.6704 7.97993 17.6704C8.71793 17.6704 9.31593 17.0724 9.31593 16.3344C9.31593 15.8354 9.04193 15.4004 8.63693 15.1714L8.62993 15.1684C8.05193 14.8614 7.38193 14.6224 6.67593 14.4854L6.63093 14.4784V11.8914C6.89593 11.9704 7.12293 12.0644 7.33893 12.1784L7.31793 12.1684C7.50493 12.2744 7.72893 12.3374 7.96793 12.3374C8.70593 12.3374 9.30393 11.7394 9.30393 11.0014C9.30393 10.5024 9.02993 10.0674 8.62493 9.83835L8.61793 9.83535C8.03993 9.52835 7.36993 9.28935 6.66393 9.15235L6.61893 9.14535V6.55835C6.88393 6.63735 7.11093 6.73135 7.32693 6.84535L7.30593 6.83535C7.49293 6.94135 7.71693 7.00435 7.95593 7.00435C8.69393 7.00435 9.29193 6.40635 9.29193 5.66835C9.29193 5.16935 9.01793 4.73435 8.61293 4.50535L8.60593 4.50235C8.02793 4.19535 7.35793 3.95635 6.65193 3.81935L6.60693 3.81235V2.66935H28.0069L27.9999 29.3333ZM24.0002 15.9994H13.3332C12.5972 15.9994 12.0002 15.4024 12.0002 14.6664V6.66642C12.0002 5.93042 12.5972 5.33342 13.3332 5.33342H24.0002C24.7362 5.33342 25.3332 5.93042 25.3332 6.66642V14.6664C25.3332 15.4024 24.7362 15.9994 24.0002 15.9994ZM14.6681 13.3331H22.6681V8.00008H14.6681V13.3331Z" fill="#131C26"/>
</svg>

<svg version="1.1" xmlns="http://www.w3.org/2000/svg" width="32" height="32" viewBox="0 0 32 32">
<title>catalog</title>
<path fill="#333" d="M28.667 0h-22.667c-1.105 0-2 0.895-2 2v0 1.78c-0.752 0.141-1.423 0.393-2.032 0.74l0.032-0.017c-0.411 0.233-0.684 0.668-0.684 1.167 0 0.739 0.599 1.337 1.337 1.337 0.24 0 0.465-0.063 0.66-0.174l-0.007 0.003c0.19-0.113 0.411-0.214 0.642-0.293l0.025-0.007v2.583c-0.752 0.141-1.423 0.393-2.032 0.74l0.032-0.017c-0.411 0.233-0.684 0.668-0.684 1.167 0 0.739 0.599 1.337 1.337 1.337 0.24 0 0.465-0.063 0.66-0.174l-0.007 0.003c0.19-0.113 0.411-0.214 0.642-0.293l0.025-0.007v2.583c-0.752 0.141-1.423 0.393-2.032 0.74l0.032-0.017c-0.411 0.233-0.684 0.668-0.684 1.167 0 0.738 0.599 1.337 1.337 1.337 0.24 0 0.465-0.063 0.66-0.174l-0.007 0.003c0.19-0.113 0.411-0.214 0.642-0.293l0.025-0.007v2.583c-0.752 0.141-1.423 0.393-2.032 0.74l0.032-0.017c-0.411 0.233-0.684 0.668-0.684 1.167 0 0.738 0.599 1.337 1.337 1.337 0.24 0 0.465-0.063 0.66-0.174l-0.007 0.003c0.19-0.113 0.411-0.214 0.642-0.293l0.025-0.007v2.583c-0.752 0.141-1.423 0.393-2.032 0.74l0.032-0.017c-0.411 0.233-0.684 0.668-0.684 1.167 0 0.738 0.599 1.337 1.337 1.337 0.24 0 0.465-0.063 0.66-0.174l-0.007 0.003c0.19-0.113 0.411-0.214 0.642-0.293l0.025-0.007v2.103c0 1.105 0.895 2 2 2v0h22.8c1.105 0 2-0.895 2-2v0-28c0-1.105-0.895-2-2-2v0zM28 29.333h-21.333v-1.443c0.265 0.079 0.492 0.173 0.708 0.287l-0.021-0.010c0.187 0.106 0.411 0.169 0.65 0.169 0.738 0 1.336-0.598 1.336-1.336 0-0.499-0.274-0.934-0.679-1.163l-0.007-0.003c-0.578-0.307-1.248-0.546-1.954-0.683l-0.045-0.007v-2.587c0.265 0.079 0.492 0.173 0.708 0.287l-0.021-0.010c0.187 0.106 0.411 0.169 0.65 0.169 0.738 0 1.336-0.598 1.336-1.336 0-0.499-0.274-0.934-0.679-1.163l-0.007-0.003c-0.578-0.307-1.248-0.546-1.954-0.683l-0.045-0.007v-2.587c0.265 0.079 0.492 0.173 0.708 0.287l-0.021-0.010c0.187 0.106 0.411 0.169 0.65 0.169 0.738 0 1.336-0.598 1.336-1.336 0-0.499-0.274-0.934-0.679-1.163l-0.007-0.003c-0.578-0.307-1.248-0.546-1.954-0.683l-0.045-0.007v-2.587c0.265 0.079 0.492 0.173 0.708 0.287l-0.021-0.010c0.187 0.106 0.411 0.169 0.65 0.169 0.738 0 1.336-0.598 1.336-1.336 0-0.499-0.274-0.934-0.679-1.163l-0.007-0.003c-0.578-0.307-1.248-0.546-1.954-0.683l-0.045-0.007v-2.587c0.265 0.079 0.492 0.173 0.708 0.287l-0.021-0.010c0.187 0.106 0.411 0.169 0.65 0.169 0.738 0 1.336-0.598 1.336-1.336 0-0.499-0.274-0.934-0.679-1.163l-0.007-0.003c-0.578-0.307-1.248-0.546-1.954-0.683l-0.045-0.007v-1.143h21.4zM24 16h-10.667c-0.736 0-1.333-0.597-1.333-1.333v0-8c0-0.736 0.597-1.333 1.333-1.333v0h10.667c0.736 0 1.333 0.597 1.333 1.333v0 8c0 0.736-0.597 1.333-1.333 1.333v0zM14.667 13.333h8v-5.333h-8z"></path>
</svg>
